src/components/profile_avatars/profile-male-4.svg

<svg xmlns="http://www.w3.org/2000/svg" width="528" height="528" fill="none" viewBox="0 0 528 528"><g clip-path="url(#a)"><ellipse cx="265.5" cy="278.5" fill="#f4bb38" rx="257.5" ry="254.5"/><path fill="#f4f7fb" d="M636.086 924.417c10.822 328.113 79.784 588.173-212.995 597.833-292.778 9.66-454.2964-269.72-465.1183-597.833-33.1626-469.42 46.87644-533.724 288.2863-545.569 284.973-13.983 348.427 68.939 372.184 221.964 37.062 238.721 12.069 154.584 17.643 323.605"/><path fill="#9e765c" d="M181.998 384.509c9.818-43.733-13.09-106.154 0-187.969 58.907-42.544 185.645-5.354 185.645 49.626s-6.716 97.382 16.49 129.513c-6.545 29.454-56.654 52.207-95.925 75.77-49.089 29.453-114.812-28.622-106.21-66.94"/><path fill="#845d43" d="M265.156 390.1c-33.439 1.967-73.535-21.393-80.76-34.611v-8.087c8.128-2.833 31.067 9.601 65.023 16.399 33.956 6.797 95.125-73.48 121.014-92.678v12.967c-.903 12.274-14.122 40.4-23.444 53.395-10.837 15.107-32.8 49.731-81.833 52.615"/><path fill="#9e765c" d="M154.313 300.507c-7.166-17.891-19.684-70.705-23.253-103.001C112.323 9.37253 236.911-2.5008 279.738.321203 385.701 7.30337 389.855 134.037 390.747 175.113c2.38 15.051 0 47.118-8.076 77.889-7.614 29.012-7.782 40.666-22.199 64.984-5.891 9.937-30.996 34.959-58.388 50.918-22.747 13.253-59.491 9.805-80.013 2.28-20.521-7.526-50.806-28.35-67.758-70.677"/><rect width="60.3769" height="94.3946" fill="#9e765c" rx="30.1884" transform="matrix(.990215 .139553 -.107278 .994229 359.83 159.796)"/><rect width="62.1888" height="88.658" fill="#9e765c" rx="31.0944" transform="matrix(-.989057 .147531 .12351 .992343 172.519 161.219)"/><path fill="#fdfcf5" d="M252.214 301.728c14.475-.017 32.5-4.592 41.032-7.855.821-.314 1.72.659 1.347 1.455-4.017 8.574-10.229 25.089-41.094 25.758-32.139.696-36.935-17.759-38.462-26.556-.123-.709.607-1.262 1.263-.968 7.262 3.256 20.829 8.184 35.914 8.166"/><path fill="#434141" d="m165.782 854.876 75.217-344.963c.525-2.408 2.657-4.125 5.122-4.125h31.24c2.443 0 4.561 1.686 5.11 4.066l81.125 352.236c.606 2.631-.886 5.293-3.447 6.149l-105.574 35.295c-1.347.45-2.818.335-4.078-.319l-82.008-42.568c-2.102-1.092-3.211-3.457-2.707-5.771"/><path fill="#2b2b2b" d="M282.659 519.77h-42.816l-.874 6.99s5.243 2.622 22.719 3.495c17.476.874 21.321-1.747 21.321-1.747z"/><path fill="#434141" d="M262.387 459.002c16.386 0 29.325 4.308 35.016 6.583 1.942.776 3.074 2.715 2.913 4.8-.443 5.743-1.548 17.394-3.639 24.715-1.321 4.624-3.252 10.621-4.949 15.737-2.17 6.549-8.063 11.125-14.955 11.435-4.187.188-9.188.341-14.386.341-7.55 0-14.945-.992-20.001-1.869-4.23-.733-7.908-3.257-9.891-7.065-2.414-4.633-5.448-11.621-6.659-19.292-1.548-9.803-1.29-21.386-1.025-27.084.099-2.135 1.543-3.941 3.619-4.45 5.659-1.387 17.961-3.851 33.957-3.851"/><path fill="#c3dbf2" d="M313.468 512.683c-20.911-31.006-22.353-31.006-43.264-54.801 0 0 37.577-18.627 73.937-59.18s28.455-47.541 28.455-47.541c34.693 32.775 29.19 51.722 16.585 74.994-37.496 69.222-60.571 77.154-75.713 86.528M213.726 511.568c20.911-31.006 13.934-29.169 34.846-52.965 0 0-32.449-33.595-49.754-55.199-17.306-21.605-14.422-34.217-14.422-34.217-21.632 6.49-24.549 43.628-23.795 51.922 3.605 39.658 37.983 81.085 53.125 90.459"/><path fill="url(#b)" d="M145.173 120.567c-4.884 19.998-10.333 38.693-10.815 58.419l-1.446 10.62-2.168.759c-.722-6.07-2.023-21.395-1.445-34.141.723-15.932 1.445-44.003 11.563-72.0734 10.117-28.0708 30.353-47.7963 38.302-53.8656 7.949-6.0694 31.075-28.06974 89.612-28.82841C327.313.697916 354.775 33.3208 369.951 64.4263c12.083 24.7645 17.533 58.5957 18.772 72.6297.012.064.018.132.018.203-.006-.067-.012-.135-.018-.203-.16-.847-1.461-.891-5.763 4.755-4.626 6.069-6.745 32.876-7.227 45.52h-5.42V159.26c0-9.863-9.07-36.768-13.008-47.796-3.253-9.105-10.308-20.8144-14.093-25.0374-3.785-4.2229-8.079-6.3218-22.533-5.4512-14.453.8705-41.785 5.2919-80.449 5.2919-34.189 0-55.309-3.7933-69.763-5.2919-11.563.7399-18.067 10.0033-25.294 39.5916"/></g><defs><linearGradient id="b" x1="258.948" x2="258.948" y1="24.9743" y2="143.327" gradientUnits="userSpaceOnUse"><stop stop-color="#885a3b"/><stop offset="1" stop-color="#9e765c"/></linearGradient><clipPath id="a"><path fill="#fff" d="M0 264C0 118.197 118.197 0 264 0s264 118.197 264 264-118.197 264-264 264S0 409.803 0 264"/></clipPath></defs></svg>

<svg width="528" height="528" viewBox="0 0 528 528" fill="none" xmlns="http://www.w3.org/2000/svg">
<g clip-path="url(#clip0_15658_305466)">
<ellipse cx="265.5" cy="278.5" rx="257.5" ry="254.5" fill="#F4BB38"/>
<path d="M636.086 924.417C646.908 1252.53 715.87 1512.59 423.091 1522.25C130.313 1531.91 -31.2054 1252.53 -42.0273 924.417C-75.1899 454.997 4.84914 390.693 246.259 378.848C531.232 364.865 594.686 447.787 618.443 600.812C655.505 839.533 630.512 755.396 636.086 924.417Z" fill="#F4F7FB"/>
<path d="M181.998 384.509C191.816 340.776 168.908 278.355 181.998 196.54C240.905 153.996 367.643 191.186 367.643 246.166C367.643 301.146 360.927 343.548 384.133 375.679C377.588 405.133 327.479 427.886 288.208 451.449C239.119 480.902 173.396 422.827 181.998 384.509Z" fill="#9E765C"/>
<path d="M265.156 390.1C231.717 392.067 191.621 368.707 184.396 355.489L184.396 347.402C192.524 344.569 215.463 357.003 249.419 363.801C283.375 370.598 344.544 290.321 370.433 271.123V284.09C369.53 296.364 356.311 324.49 346.989 337.485C336.152 352.592 314.189 387.216 265.156 390.1Z" fill="#845D43"/>
<path d="M154.313 300.507C147.147 282.616 134.629 229.802 131.06 197.506C112.323 9.37253 236.911 -2.5008 279.738 0.321203C385.701 7.30337 389.855 134.037 390.747 175.113C393.127 190.164 390.747 222.231 382.671 253.002C375.057 282.014 374.889 293.668 360.472 317.986C354.581 327.923 329.476 352.945 302.084 368.904C279.337 382.157 242.593 378.709 222.071 371.184C201.55 363.658 171.265 342.834 154.313 300.507Z" fill="#9E765C"/>
<rect width="60.3769" height="94.3946" rx="30.1884" transform="matrix(0.990215 0.139553 -0.107278 0.994229 359.83 159.796)" fill="#9E765C"/>
<rect width="62.1888" height="88.658" rx="31.0944" transform="matrix(-0.989057 0.147531 0.12351 0.992343 172.519 161.219)" fill="#9E765C"/>
<path d="M252.214 301.728C266.689 301.711 284.714 297.136 293.246 293.873C294.067 293.559 294.966 294.532 294.593 295.328C290.576 303.902 284.364 320.417 253.499 321.086C221.36 321.782 216.564 303.327 215.037 294.53C214.914 293.821 215.644 293.268 216.3 293.562C223.562 296.818 237.129 301.746 252.214 301.728Z" fill="#FDFCF5"/>
<path d="M165.782 854.876L240.999 509.913C241.524 507.505 243.656 505.788 246.121 505.788H277.361C279.804 505.788 281.922 507.474 282.471 509.854L363.596 862.09C364.202 864.721 362.71 867.383 360.149 868.239L254.575 903.534C253.228 903.984 251.757 903.869 250.497 903.215L168.489 860.647C166.387 859.555 165.278 857.19 165.782 854.876Z" fill="#434141"/>
<path d="M282.659 519.77H239.843L238.969 526.76C238.969 526.76 244.212 529.382 261.688 530.255C279.164 531.129 283.009 528.508 283.009 528.508L282.659 519.77Z" fill="#2B2B2B"/>
<path d="M262.387 459.002C278.773 459.002 291.712 463.31 297.403 465.585C299.345 466.361 300.477 468.3 300.316 470.385C299.873 476.128 298.768 487.779 296.677 495.1C295.356 499.724 293.425 505.721 291.728 510.837C289.558 517.386 283.665 521.962 276.773 522.272C272.586 522.46 267.585 522.613 262.387 522.613C254.837 522.613 247.442 521.621 242.386 520.744C238.156 520.011 234.478 517.487 232.495 513.679C230.081 509.046 227.047 502.058 225.836 494.387C224.288 484.584 224.546 473.001 224.811 467.303C224.91 465.168 226.354 463.362 228.43 462.853C234.089 461.466 246.391 459.002 262.387 459.002Z" fill="#434141"/>
<path d="M313.468 512.683C292.557 481.677 291.115 481.677 270.204 457.882C270.204 457.882 307.781 439.255 344.141 398.702C380.501 358.149 372.596 351.161 372.596 351.161C407.289 383.936 401.786 402.883 389.181 426.155C351.685 495.377 328.61 503.309 313.468 512.683Z" fill="#C3DBF2"/>
<path d="M213.726 511.568C234.637 480.562 227.66 482.399 248.572 458.603C248.572 458.603 216.123 425.008 198.818 403.404C181.512 381.799 184.396 369.187 184.396 369.187C162.764 375.677 159.847 412.815 160.601 421.109C164.206 460.767 198.584 502.194 213.726 511.568Z" fill="#C3DBF2"/>
<path d="M145.173 120.567C140.289 140.565 134.84 159.26 134.358 178.986L132.912 189.606L130.744 190.365C130.022 184.295 128.721 168.97 129.299 156.224C130.022 140.292 130.744 112.221 140.862 84.1506C150.979 56.0798 171.215 36.3543 179.164 30.285C187.113 24.2156 210.239 2.21526 268.776 1.45659C327.313 0.697916 354.775 33.3208 369.951 64.4263C382.034 89.1908 387.484 123.022 388.723 137.056C388.735 137.12 388.741 137.188 388.741 137.259C388.735 137.192 388.729 137.124 388.723 137.056C388.563 136.209 387.262 136.165 382.96 141.811C378.334 147.88 376.215 174.687 375.733 187.331H370.313V159.26C370.313 149.397 361.243 122.492 357.305 111.464C354.052 102.359 346.997 90.6496 343.212 86.4266C339.427 82.2037 335.133 80.1048 320.679 80.9754C306.226 81.8459 278.894 86.2673 240.23 86.2673C206.041 86.2673 184.921 82.474 170.467 80.9754C158.904 81.7153 152.4 90.9787 145.173 120.567Z" fill="url(#paint0_linear_15658_305466)"/>
</g>
<defs>
<linearGradient id="paint0_linear_15658_305466" x1="258.948" y1="24.9743" x2="258.948" y2="143.327" gradientUnits="userSpaceOnUse">
<stop stop-color="#885A3B"/>
<stop offset="1" stop-color="#9E765C"/>
</linearGradient>
<clipPath id="clip0_15658_305466">
<path d="M0 264C0 118.197 118.197 0 264 0C409.803 0 528 118.197 528 264C528 409.803 409.803 528 264 528C118.197 528 0 409.803 0 264Z" fill="white"/>
</clipPath>
</defs>
</svg>
